src/components/MapCanvas/icons/food.svg

<?xml version="1.0" standalone="no"?><!DOCTYPE svg PUBLIC "-//W3C//DTD SVG 1.1//EN" "http://www.w3.org/Graphics/SVG/1.1/DTD/svg11.dtd"><svg width="100%" height="100%" viewBox="0 0 32 32" version="1.1" xmlns="http://www.w3.org/2000/svg" xmlns:xlink="http://www.w3.org/1999/xlink" xml:space="preserve" style="fill-rule:evenodd;clip-rule:evenodd;stroke-linejoin:round;stroke-miterlimit:1.41421;"><g id="Layer 1"><path d="M16,31.484c-8.538,0 -15.483,-6.946 -15.483,-15.484c0,-8.537 6.945,-15.484 15.483,-15.484c8.538,0 15.483,6.947 15.483,15.484c0,8.538 -6.945,15.484 -15.483,15.484" style="fill:#ffd634;fill-rule:nonzero;"/><path d="M16,0c-8.837,0 -16,7.163 -16,16c0,8.837 7.163,16 16,16c8.837,0 16,-7.163 16,-16c0,-8.837 -7.163,-16 -16,-16M16,1.032c8.253,0 14.968,6.715 14.968,14.968c0,8.253 -6.715,14.968 -14.968,14.968c-8.253,0 -14.968,-6.715 -14.968,-14.968c0,-8.253 6.715,-14.968 14.968,-14.968" style="fill:#000;fill-rule:nonzero;"/><path d="M15.205,3.313c-0.207,-0.001 -0.374,0.166 -0.374,0.373l0,5.597l-0.745,-0.001l0,-5.596c0,-0.207 -0.168,-0.374 -0.374,-0.374c-0.207,0 -0.373,0.167 -0.373,0.374l0,5.596l-0.747,0l0,-5.596c0,-0.207 -0.167,-0.374 -0.372,-0.374c-0.207,0 -0.374,0.167 -0.374,0.374l0,5.596l-0.745,0l0,-5.596c0,-0.207 -0.168,-0.374 -0.375,-0.374c-0.206,0 -0.373,0.167 -0.373,0.374l0,8.583c0,0.823 0.668,1.492 1.493,1.492l0,13.807c0,0.618 0.502,1.119 1.119,1.119c0.618,0 1.121,-0.501 1.121,-1.119l0,-13.807c0.823,0 1.492,-0.669 1.492,-1.493l0,-8.582c0,-0.207 -0.168,-0.374 -0.373,-0.374" style="fill:#000;fill-rule:nonzero;"/><path d="M20.802,3.313l-0.746,-0.001c-0.824,0 -1.492,0.668 -1.492,1.494l0,10.447c0,0.825 0.668,1.493 1.492,1.493l0,10.823c0,0.618 0.502,1.119 1.119,1.119c0.618,0 1.119,-0.501 1.119,-1.119l0,-22.764c0,-0.824 -0.668,-1.492 -1.492,-1.492" style="fill:#000;fill-rule:nonzero;"/></g></svg>

<svg viewBox="0 0 32 32" height="32px" width="32px" xmlns="http://www.w3.org/2000/svg" fill-rule="evenodd" clip-rule="evenodd" stroke-linejoin="round" stroke-miterlimit="1.414"><g fill-rule="nonzero"><path d="M16 31.484C7.462 31.484.517 24.538.517 16 .517 7.463 7.462.516 16 .516S31.483 7.463 31.483 16c0 8.538-6.945 15.484-15.483 15.484" fill="#ffd634"/><path d="M16 0C7.163 0 0 7.163 0 16s7.163 16 16 16 16-7.163 16-16S24.837 0 16 0m0 1.032c8.253 0 14.968 6.715 14.968 14.968S24.253 30.968 16 30.968 1.032 24.253 1.032 16 7.747 1.032 16 1.032"/><path d="M15.205 3.313a.372.372 0 0 0-.374.373v5.597l-.745-.001V3.686a.374.374 0 0 0-.747 0v5.596h-.747V3.686a.373.373 0 1 0-.746 0v5.596h-.745V3.686a.374.374 0 0 0-.748 0v8.583c0 .823.668 1.492 1.493 1.492v13.807a1.12 1.12 0 0 0 2.24 0V13.761c.823 0 1.492-.669 1.492-1.493V3.686a.374.374 0 0 0-.373-.374M20.802 3.313l-.746-.001c-.824 0-1.492.668-1.492 1.494v10.447c0 .825.668 1.493 1.492 1.493v10.823a1.12 1.12 0 0 0 2.238 0V4.805c0-.824-.668-1.492-1.492-1.492"/></g></svg>
